!!!OTL: "Der Bauernstand" MERKET AUF IHR CHRISTENLEUT
!!!ARE: Europa, Mitteleuropa, Deutschland, Niederrhein
!!!SCT: Z1301
!!!YEM: Copyright 1995, estate of Helmut Schaffrath.
**kern
*ICvox
*Ivox
*M6/8
*k[f#c#g#]
*A:
=1
{4a
8cc#
4b
8dd
=2
4cc#
8dd
4.ee}
=3
{4dd
8b
4cc#
8a
=4
4b
8g#
4a}
{8a
=5
4g#
8a
4b
8a
=6
4g#
8f#
4.e}
=7
{4a
8cc#
4ee
8ee
=8
4ff#
8ff#
4ee
8ee}
=9
{4a
8cc#
4ee
8ee
=10
4ff#
8ff#
4ee
8ee}
=11
{4a
8cc#
4b
8dd
=12
4cc#
8ff#
4.ee}
=13
{4dd
8b
4cc#
8b
=14
4a
8g#
4a
8r}
==
!!!AGN: Handwerker -, Bauern - Lied
!!!ONB: ESAC (Essen Associative Code) Database: ZUCCAL
!!!AMT: compound duple
!!!AIN: vox
!!!EED: Helmut Schaffrath
!!!EEV: 1.0
*-
